demo/assets/images/line-2.svg

<svg width="284" height="15" viewBox="0 0 284 15" fill="none" xmlns="http://www.w3.org/2000/svg">
<path d="M25.0571 5.7692C23.2031 5.76173 21.3491 5.7748 19.5182 5.74119C18.5509 5.72439 17.1117 5.66279 16.8238 5.55637C16.3402 5.37528 17.6529 5.267 18.505 5.15685C18.7929 5.12138 19.2303 5.04484 19.1612 5.02057C18.8848 4.92536 18.5048 4.78534 18.0327 4.77041C16.6048 4.7256 15.1081 4.7256 13.6456 4.72C10.3523 4.70506 7.0127 4.81147 3.69632 4.64158C4.6636 4.27193 6.88614 4.40074 8.4292 4.28873C9.77646 4.18978 11.2502 4.13938 12.563 4.03296C12.9545 4.00123 13.0696 3.85748 13.1503 3.7604C13.1733 3.7268 12.7358 3.66519 12.4249 3.64652C11.4577 3.58491 10.4558 3.53637 8.9819 3.45609C25.2759 3.11258 41.2591 3.2974 57.104 3.00803C46.3834 3.00243 35.6625 2.9987 24.9418 2.98563C21.9939 2.98189 19.0346 2.95202 16.0982 2.91281C15.5916 2.90535 15.0849 2.79147 14.6934 2.7112C14.5898 2.68879 14.8201 2.59357 15.0504 2.5637C18.862 2.08017 22.8577 1.7012 27.959 1.66573C34.6032 1.61906 41.213 1.48089 47.8573 1.41928C96.6703 0.961893 145.529 1.06271 194.388 1.04965C213.262 1.04405 232.147 1.09632 251.02 1.05339C256.778 1.04032 261.844 1.38009 267.188 1.58358C268.143 1.62092 269.041 1.76842 269.732 1.8991C271.16 2.16981 272.427 2.46103 273.774 2.74854C268.258 2.92963 262.777 2.51517 257.33 2.76907C257.1 2.78027 256.858 2.84935 256.847 2.89416C256.824 2.9483 256.962 3.04164 257.169 3.05284C258.54 3.13125 259.933 3.23208 261.349 3.25075C266.508 3.31609 271.69 3.34968 276.86 3.40009C277.091 3.40195 277.286 3.46731 277.505 3.50278C277.021 3.57559 276.549 3.70814 276.043 3.71187C272.784 3.73614 269.525 3.73241 264.977 3.74175C267.856 4.02552 269.583 4.21221 271.402 4.3709C272.784 4.49038 274.81 4.31116 275.939 4.608C272.726 4.80589 269.168 4.55012 265.714 4.90296C269.214 5.05045 272.358 5.17367 275.444 5.32676C275.904 5.34916 276.123 5.52278 276.342 5.63293C276.377 5.64973 275.87 5.72068 275.582 5.72628C274.5 5.74868 273.406 5.75988 272.312 5.76734C269.732 5.78788 267.141 5.8028 264.562 5.82521C263.549 5.83454 263.18 5.92603 263.583 6.07165C263.71 6.11833 264.032 6.165 264.332 6.1874C265.921 6.30315 267.729 6.32182 268.247 6.70641C268.88 7.17127 271.114 7.37476 274.062 7.37662C274.488 7.37662 274.914 7.44382 275.329 7.48116C274.995 7.49983 274.661 7.52597 274.315 7.53531C271.92 7.59878 271.402 7.75001 272.68 8.12339C273.187 8.27088 271.103 8.26527 270.492 8.37916C270.181 8.43703 270.17 8.63678 270.308 8.64611C271.978 8.74506 273.694 8.81975 275.317 8.89816C274.327 8.97657 273.141 9.0195 272.427 9.13711C270.976 9.37608 269.249 9.44143 267.383 9.40783C264.815 9.36115 262.294 9.26967 259.737 9.21179C258.309 9.18005 256.858 9.17632 253.646 9.14085C255.926 9.33127 256.605 9.41715 257.377 9.44702C260.244 9.55904 263.123 9.66545 266.024 9.7476C268.569 9.8204 271.172 9.84094 273.717 9.91375C275.467 9.96416 277.114 10.0762 278.012 10.373C271.886 10.5784 265.932 10.8958 259.645 10.9219C259.426 10.9219 259.023 10.991 259.035 11.0246C259.058 11.0787 259.276 11.1571 259.553 11.1777C263.226 11.4614 267.038 11.6799 271.091 11.7788C271.321 11.7844 271.701 11.8778 271.644 11.889C271.241 11.9786 270.792 12.126 270.297 12.1316C261.81 12.2343 253.335 12.1839 244.848 12.0962C239.678 12.042 234.496 12.0066 229.325 12.0084C188.239 12.0178 147.153 12.0047 106.067 12.0682C79.789 12.1092 53.5226 12.2605 27.2564 12.3837C20.5545 12.4154 13.9565 12.3799 7.54251 12.0383C7.28915 12.0252 7.07019 11.9356 7.07019 11.8833C7.07019 11.8423 7.3811 11.7788 7.64597 11.762C8.31384 11.7191 9.01633 11.6817 9.71875 11.6649C11.5036 11.622 13.5879 11.691 14.8891 11.4465C15.7873 11.2784 15.845 10.9835 16.8238 10.8397C18.4014 10.6082 17.0769 10.6418 16.2824 10.5746C15.7527 10.5298 15.3613 10.4346 14.9813 10.3525C14.9352 10.3413 15.3383 10.2442 15.5916 10.2367C17.031 10.1863 18.482 10.1359 19.9444 10.1135C22.8923 10.0668 25.8631 10.0612 28.788 9.99029C29.7438 9.96789 30.5614 9.79801 31.4481 9.69533C32.5305 9.71773 33.6127 9.76627 34.6837 9.76067C41.5697 9.72893 48.4676 9.68599 55.3537 9.64492C49.2391 9.57024 43.1358 9.55904 37.0213 9.57771C35.2364 9.58331 33.4632 9.67665 31.6899 9.72892C23.5486 9.78119 15.4074 9.80361 7.30072 9.62438C6.71344 9.61132 6.18353 9.5161 5.6308 9.46009C6.04535 9.38168 6.41394 9.24539 6.88605 9.23605C15.6952 9.06616 24.5043 8.84774 33.348 8.77119C45.5426 8.66665 57.7718 8.68531 69.978 8.6237C81.0671 8.56956 92.1561 8.42767 103.245 8.41274C138.044 8.36607 172.832 8.36235 207.631 8.33809C216.889 8.33249 226.136 8.3138 235.394 8.297C236.856 8.29513 238.307 8.26713 239.816 8.14018C237.547 8.11218 235.279 8.08045 232.999 8.05992C231.525 8.04685 230.039 8.04123 228.554 8.0431C181.549 8.05617 134.532 8.00203 87.5271 8.11591C65.7058 8.16818 43.8843 8.32687 22.0515 8.38101C17.6297 8.39221 13.2078 8.39595 8.80899 8.31007C8.79749 8.02443 9.99506 8.0655 10.8011 8.05057C14.0599 7.98522 17.3418 7.93856 20.6121 7.87509C20.9 7.86949 21.1305 7.79667 21.3838 7.75373C21.1075 7.71266 20.8772 7.64918 20.5663 7.63612C19.5299 7.59131 18.459 7.53903 17.3881 7.53343C14.0601 7.52036 10.7322 7.52782 7.00131 7.52782C8.41769 6.98828 12.2866 7.04058 14.6012 6.70827C10.9394 6.37035 7.41586 6.62798 4.11099 6.41702C4.08795 6.17432 5.37759 6.25085 6.04547 6.24338C11.5843 6.18738 17.123 6.15938 22.6503 6.0847C23.4333 6.0735 24.1129 5.86255 24.8499 5.74306C43.6312 5.87188 62.3779 5.72065 81.1361 5.61237C65.6827 5.54702 50.2293 5.52651 34.7759 5.51717C31.448 5.50597 28.1086 5.50597 25.0571 5.7692ZM42.9403 4.87494C42.8827 4.89175 42.8249 4.90668 42.7674 4.92349C47.9837 4.92349 53.1887 4.92349 58.4051 4.92349C58.4051 4.90668 58.4051 4.89175 58.3936 4.87494C53.2463 4.87494 48.0876 4.87494 42.9403 4.87494ZM228.946 5.31741C228.6 5.27074 228.439 5.2278 228.255 5.22593C227.184 5.2166 226.113 5.21472 225.03 5.21659C224.881 5.21659 224.731 5.2502 224.57 5.26887C224.904 5.28567 225.226 5.31367 225.56 5.31554C226.631 5.32114 227.702 5.31741 228.946 5.31741ZM261.948 7.13392C262.294 7.13392 262.754 7.15818 262.962 7.13018C263.606 7.04617 263.341 6.97709 262.305 6.96963C261.994 6.96776 261.683 7.00885 261.361 7.03125C261.557 7.06485 261.752 7.09844 261.948 7.13392ZM260.048 8.21487C260.854 8.30821 261.303 8.28581 261.223 8.14766C261.211 8.12712 260.658 8.10286 260.359 8.10472C260.244 8.10659 260.152 8.17753 260.048 8.21487Z" fill="#00C471"/>
<path d="M47.558 14.6408C50.9089 14.217 54.5362 14.5811 57.6338 14.2469C50.2526 14.1591 43.2512 14.0751 36.2269 13.993C36.1233 13.9612 36.0196 13.9239 35.9045 13.8885C36.2039 13.866 36.5033 13.8418 36.8027 13.8194C37.4706 13.7727 38.3112 13.7522 38.7718 13.6738C39.4742 13.5543 38.4956 13.4236 36.6762 13.4329C31.8628 13.4572 27.061 13.4889 22.2591 13.5244C17.8373 13.558 13.4153 13.6028 8.92441 13.5281C10.6517 13.5039 12.4135 13.5076 14.0832 13.4479C15.845 13.3844 17.4802 13.2313 19.242 13.166C21.3838 13.0857 23.5947 13.0315 25.7941 13.011C56.8506 12.7328 87.9302 12.6077 119.044 12.6152C155.697 12.6245 192.35 12.647 229.015 12.6526C240.127 12.6544 251.17 12.731 262.167 13.1734C262.512 13.4385 261.107 13.3751 260.405 13.3825C254.498 13.4348 248.579 13.4759 242.603 13.6103C245.297 13.657 248.084 13.6551 250.675 13.7634C253.093 13.8661 255.327 14.0864 257.734 14.2618C256.755 14.54 255.258 14.4355 254.106 14.4411C250.41 14.456 246.702 14.4261 243.006 14.4317C226.723 14.4579 210.441 14.4859 194.158 14.5213C192.316 14.5251 190.301 14.5064 188.689 14.6184C184.071 14.9414 179.269 14.8873 174.479 14.891C152.634 14.9115 130.79 14.9283 108.946 14.9488C105.261 14.9526 101.714 14.9339 98.0866 14.7062C93.2157 14.4037 88.0453 14.3122 83.3702 14.891C82.8174 14.9582 82.0001 14.9993 81.3092 14.9993C76.8758 15.003 72.4309 14.9918 67.9975 14.9843C62.3551 14.5568 56.3672 14.7379 50.4944 14.7155C49.746 14.7136 49.032 14.68 47.558 14.6408Z" fill="#00C471"/>
<path d="M258.46 0.252489C243.755 0.297295 230.179 0.362644 216.602 0.377579C180.375 0.420516 144.148 0.429836 107.922 0.480241C95.727 0.497042 83.5323 0.607202 71.3377 0.655741C68.0444 0.668809 64.7397 0.616533 61.4463 0.582928C60.5366 0.573593 60.1796 0.463437 60.4905 0.317818C60.5826 0.274879 60.9164 0.222621 61.1697 0.21702C63.3576 0.179682 65.5457 0.129275 67.7451 0.123675C87.7125 0.0770028 107.668 0.0135276 127.636 0.00606086C160.915 -0.00700609 194.182 0.000467579 227.461 0.0340735C237.41 0.0415416 247.371 0.170345 258.46 0.252489Z" fill="#00C471"/>
<path d="M0.702601 11.047C0.598964 11.047 0.299445 11.047 4.97092e-05 11.047C0.357021 11.0377 0.713914 11.019 1.07089 11.0227C1.31271 11.0246 1.54313 11.0582 1.77344 11.0769C1.48556 11.0675 1.18624 11.0601 0.702601 11.047Z" fill="#00C471"/>
<path d="M284 6.00071L283.252 6.01751L283.355 5.94656L284 6.00071Z" fill="#00C471"/>
</svg>

<svg xmlns="http://www.w3.org/2000/svg" width="284" height="15" fill="none"><path fill="#00C471" d="M25.057 5.77c-1.854-.008-3.708.005-5.539-.029-.967-.017-2.406-.078-2.694-.185-.484-.18.829-.289 1.681-.4.288-.035.725-.111.656-.135-.276-.096-.656-.236-1.128-.25-1.428-.045-2.925-.045-4.387-.051-3.294-.015-6.633.091-9.95-.078.968-.37 3.19-.241 4.733-.353 1.347-.1 2.821-.15 4.134-.256.391-.032.507-.176.587-.273.023-.033-.414-.095-.725-.113-.967-.062-1.97-.11-3.443-.19 16.294-.344 32.277-.16 48.122-.449-10.72-.006-21.441-.01-32.162-.022a733 733 0 0 1-8.844-.073c-.506-.008-1.013-.122-1.405-.202-.103-.022.127-.117.357-.147 3.812-.484 7.808-.863 12.909-.898 6.644-.047 13.254-.185 19.898-.247 48.813-.457 97.672-.356 146.531-.37 18.874-.005 37.759.047 56.632.004 5.758-.013 10.824.327 16.168.53.955.038 1.853.185 2.544.316 1.428.27 2.695.562 4.042.85-5.516.18-10.997-.234-16.444.02-.23.011-.472.08-.483.125-.023.054.115.148.322.159 1.371.078 2.764.18 4.18.198 5.159.065 10.341.099 15.511.15.231.001.426.066.645.102-.484.073-.956.205-1.462.209-3.259.024-6.518.02-11.066.03 2.879.284 4.606.47 6.425.629 1.382.12 3.408-.06 4.537.237-3.213.198-6.771-.058-10.225.295 3.5.147 6.644.27 9.73.424.46.022.679.196.898.306.035.017-.472.088-.76.093a236 236 0 0 1-3.27.041c-2.58.02-5.171.036-7.75.058-1.013.01-1.382.101-.979.247.127.046.449.093.749.115 1.589.116 3.397.135 3.915.52.633.464 2.867.668 5.815.67.426 0 .852.067 1.267.104-.334.019-.668.045-1.014.054-2.395.064-2.913.215-1.635.588.507.148-1.577.142-2.188.256-.311.058-.322.258-.184.267 1.67.1 3.386.174 5.009.252-.99.079-2.176.122-2.89.24-1.451.238-3.178.303-5.044.27-2.568-.047-5.089-.138-7.646-.196-1.428-.032-2.879-.036-6.091-.071 2.28.19 2.959.276 3.731.306 2.867.112 5.746.218 8.647.3 2.545.073 5.148.094 7.693.167 1.75.05 3.397.162 4.295.459-6.126.205-12.08.523-18.367.549-.219 0-.622.069-.61.103.023.054.241.132.518.153 3.673.283 7.485.502 11.538.6.23.006.61.1.553.111-.403.09-.852.237-1.347.243-8.487.102-16.962.052-25.449-.036-5.17-.054-10.352-.09-15.523-.088-41.086.01-82.172-.003-123.258.06-26.278.041-52.544.193-78.81.316-6.703.031-13.3-.004-19.714-.346-.254-.013-.473-.102-.473-.155 0-.04.311-.104.576-.121.668-.043 1.37-.08 2.073-.097 1.785-.043 3.869.026 5.17-.218.898-.169.956-.463 1.935-.607 1.577-.232.253-.198-.542-.265-.53-.045-.92-.14-1.3-.223-.047-.01.356-.108.61-.115 1.439-.05 2.89-.101 4.352-.123 2.948-.047 5.92-.053 8.844-.124.956-.022 1.773-.192 2.66-.295 1.083.023 2.165.071 3.236.066 6.886-.032 13.784-.075 20.67-.116-6.115-.075-12.218-.086-18.333-.067-1.785.005-3.558.099-5.331.15-8.141.053-16.283.076-24.39-.104-.587-.013-1.116-.108-1.67-.164.415-.078.784-.215 1.256-.224 8.81-.17 17.618-.388 26.462-.465 12.195-.104 24.424-.086 36.63-.147 11.09-.054 22.178-.196 33.267-.211 34.799-.047 69.587-.05 104.386-.075 9.258-.006 18.505-.024 27.763-.041 1.462-.002 2.913-.03 4.422-.157-2.269-.028-4.537-.06-6.817-.08-1.474-.013-2.96-.019-4.445-.017-47.005.013-94.022-.041-141.027.073-21.821.052-43.643.21-65.475.265-4.422.011-8.844.015-13.243-.07-.012-.287 1.186-.245 1.992-.26 3.259-.066 6.54-.112 9.811-.176.288-.006.519-.078.772-.121-.276-.041-.507-.105-.818-.118-1.036-.045-2.107-.097-3.178-.103-3.328-.013-6.656-.005-10.387-.005 1.417-.54 5.286-.487 7.6-.82-3.662-.338-7.185-.08-10.49-.291-.023-.243 1.267-.166 1.934-.174 5.54-.056 11.078-.084 16.605-.158.783-.011 1.463-.222 2.2-.342 18.781.129 37.528-.022 56.286-.13a12791 12791 0 0 0-46.36-.096c-3.328-.011-6.667-.011-9.719.252m17.883-.895q-.086.025-.173.048h15.638c0-.016 0-.031-.011-.048zm186.006.442c-.346-.046-.507-.09-.691-.091-1.071-.01-2.142-.011-3.225-.01-.149 0-.299.034-.46.053.334.017.656.045.99.047 1.071.005 2.142.001 3.386.001m33.002 1.817c.346 0 .806.024 1.014-.004.644-.084.379-.153-.657-.16-.311-.002-.622.039-.944.061q.294.05.587.103m-1.9 1.08c.806.094 1.255.072 1.175-.066-.012-.02-.565-.045-.864-.043-.115.002-.207.073-.311.11M47.558 14.64c3.35-.423 6.978-.059 10.076-.393-7.381-.088-14.383-.172-21.407-.254-.104-.032-.207-.07-.322-.104l.898-.07c.668-.046 1.508-.067 1.969-.145.702-.12-.276-.25-2.096-.241-4.813.024-9.615.056-14.417.091-4.422.034-8.844.079-13.335.004 1.728-.024 3.49-.02 5.16-.08 1.761-.064 3.396-.217 5.158-.282 2.142-.08 4.353-.135 6.552-.155 31.057-.278 62.136-.403 93.25-.396 36.653.01 73.306.032 109.971.038 11.112.001 22.155.078 33.152.52.345.265-1.06.202-1.762.21-5.907.052-11.826.093-17.802.227 2.694.047 5.481.045 8.072.153 2.418.103 4.652.323 7.059.499-.979.278-2.476.173-3.628.18-3.696.014-7.404-.016-11.1-.01q-24.424.037-48.848.09c-1.842.003-3.857-.016-5.469.096-4.618.323-9.42.27-14.21.273q-32.767.028-65.533.058c-3.685.004-7.232-.015-10.86-.243-4.87-.302-10.04-.394-14.716.185-.553.067-1.37.108-2.06.108-4.434.004-8.88-.007-13.312-.015-5.643-.427-11.63-.246-17.504-.268-.748-.002-1.462-.036-2.936-.075M258.46.252c-14.705.045-28.281.11-41.858.126-36.227.043-72.454.052-108.68.102-12.195.017-24.39.127-36.584.176-3.294.013-6.598-.04-9.892-.073-.91-.01-1.266-.12-.956-.265.093-.043.426-.095.68-.101C63.358.18 65.546.129 67.745.124c19.968-.047 39.923-.11 59.891-.118 33.279-.013 66.546-.006 99.825.028 9.949.008 19.91.136 30.999.218M.703 11.047H0c.357-.01.714-.028 1.07-.024.243.002.473.035.703.054-.287-.01-.587-.017-1.07-.03M284 6l-.748.018.103-.071z"/></svg>
